X:2115 
T:My veer y cloie y larym
C:Tom Kermode, Bradda
O:Isle of Man
C:Traditional
Z:Clague collection
B:Kiaull Vannin #115 
L:1/4
M:6/8  
K:D 
A/|Ad/ dd/|=cB/ AA/|Ad/ =cA/|G3/2 FG/|Ad/ dd/|B-B/ AD/|EG/ EE/|D3/2-D|| 

